lib/healthicons/icons/solid/typography/D.svg

<svg fill="none" height="48" viewBox="0 0 48 48" width="48" xmlns="http://www.w3.org/2000/svg"><path clip-rule="evenodd" d="m12 12c0-1.1046.8954-2 2-2h8c7.732 0 14 6.268 14 14s-6.268 14-14 14h-8c-1.1046 0-2-.8954-2-2zm4 2v20h6c5.5228 0 10-4.4772 10-10s-4.4772-10-10-10z" fill="#333" fill-rule="evenodd"/></svg>

<svg width="48" height="48" viewBox="0 0 48 48" fill="none" xmlns="http://www.w3.org/2000/svg">
<path fill-rule="evenodd" clip-rule="evenodd" d="M12 12C12 10.8954 12.8954 10 14 10H22C29.732 10 36 16.268 36 24C36 31.732 29.732 38 22 38H14C12.8954 38 12 37.1046 12 36V12ZM16 14V34H22C27.5228 34 32 29.5228 32 24C32 18.4772 27.5228 14 22 14H16Z" fill="#333333"/>
</svg>
